storage/app/icons/phosphoricons/duotone/airplay-duotone.svg

<svg xmlns="http://www.w3.org/2000/svg" fill="currentColor" viewBox="0 0 256 256"><path d="M224 64v112a16 16 0 0 1-16 16h-52.57L128 160l-27.43 32H48a16 16 0 0 1-16-16V64a16 16 0 0 1 16-16h160a16 16 0 0 1 16 16" opacity=".2"/><path d="M134.08 154.79a8 8 0 0 0-12.15 0l-48 56A8 8 0 0 0 80 224h96a8 8 0 0 0 6.07-13.21ZM97.39 208 128 172.29 158.61 208ZM232 64v112a24 24 0 0 1-24 24h-8a8 8 0 0 1 0-16h8a8 8 0 0 0 8-8V64a8 8 0 0 0-8-8H48a8 8 0 0 0-8 8v112a8 8 0 0 0 8 8h8a8 8 0 0 1 0 16h-8a24 24 0 0 1-24-24V64a24 24 0 0 1 24-24h160a24 24 0 0 1 24 24"/></svg>

<svg xmlns="http://www.w3.org/2000/svg" viewBox="0 0 256 256" fill="currentColor"><path d="M224,64V176a16,16,0,0,1-16,16H155.43L128,160l-27.43,32H48a16,16,0,0,1-16-16V64A16,16,0,0,1,48,48H208A16,16,0,0,1,224,64Z" opacity="0.2"/><path d="M134.08,154.79a8,8,0,0,0-12.15,0l-48,56A8,8,0,0,0,80,224h96a8,8,0,0,0,6.07-13.21ZM97.39,208,128,172.29,158.61,208ZM232,64V176a24,24,0,0,1-24,24h-8a8,8,0,0,1,0-16h8a8,8,0,0,0,8-8V64a8,8,0,0,0-8-8H48a8,8,0,0,0-8,8V176a8,8,0,0,0,8,8h8a8,8,0,0,1,0,16H48a24,24,0,0,1-24-24V64A24,24,0,0,1,48,40H208A24,24,0,0,1,232,64Z"/></svg>
